public/images/hashed/1e61bd91c39ecd6d069fc5118477000f.svg

<svg xmlns="http://www.w3.org/2000/svg" width="80" height="80"><defs><linearGradient id="a" x1="0%" x2="100%" y1="100%" y2="0%"><stop offset="0%" stop-color="#BD0816"/><stop offset="100%" stop-color="#FF5252"/></linearGradient></defs><g fill="none" fill-rule="evenodd"><path fill="url(#a)" d="M0 0h80v80H0z"/><path fill="#FFF" d="M63 40c-1.654 0-3-1.346-3-3s1.346-3 3-3 3 1.346 3 3-1.346 3-3 3m5-3c0-2.757-2.243-5-5-5-.09 0-.174.022-.264.026a24.578 24.578 0 0 0-2.022-4.051l-1.697 1.058a22.661 22.661 0 0 1 1.776 3.503C59.146 33.355 58 35.039 58 37c0 2.547 1.922 4.632 4.388 4.938-.182 4.588-1.69 8.933-4.422 12.613l1.605 1.192c3.023-4.069 4.67-8.885 4.823-13.965C66.47 41.169 68 39.27 68 37M56 26c-1.654 0-3-1.346-3-3s1.346-3 3-3 3 1.346 3 3-1.346 3-3 3m5-3c0-2.757-2.243-5-5-5s-5 2.243-5 5 2.243 5 5 5 5-2.243 5-5m-34-4c0-1.654 1.346-3 3-3s3 1.346 3 3-1.346 3-3 3-3-1.346-3-3m8 0c0-2.757-2.243-5-5-5s-5 2.243-5 5 2.243 5 5 5 5-2.243 5-5m1.228-.527-.301-1.977c5.282-.802 10.753.156 15.39 2.653l-.949 1.761c-4.258-2.294-9.284-3.174-14.14-2.437M20 36c0 1.654-1.346 3-3 3s-3-1.346-3-3 1.346-3 3-3 3 1.346 3 3m5.343-12.738-1.252-1.56a24.711 24.711 0 0 0-7.135 9.302A5.003 5.003 0 0 0 12 36c0 1.983 1.17 3.686 2.848 4.493-.004.174-.02.345-.02.52a24.808 24.808 0 0 0 8.539 18.717l1.313-1.509a22.81 22.81 0 0 1-7.852-17.208l.001-.03c.058.002.112.017.171.017 2.757 0 5-2.243 5-5a5.005 5.005 0 0 0-3.039-4.597 22.712 22.712 0 0 1 6.382-8.141m26.233 33.361c-1.63 6.287-9.463 7.927-11.877 8.288-.596-2.024-1.95-7.976.692-13.663.167-.353.342-.706.538-1.056 1.506-2.692 2.72-5.206 2.324-8.703-.195-1.727-1.288-4.183-2.332-6.208 2.827 2.428 6.278 7.062 5.049 14.719a.998.998 0 0 0 1.614.938c.098-.079 2.11-1.744 2.989-5.818 1.214 1.551 2.695 4.94 1.003 11.503m-22.01-6.877c.088-.15.176-.3.277-.456 2.063-3.234 1.312-7.744.653-10.215 1.879 1.011 3.586 3.562 4.193 4.689a1 1 0 0 0 1.825-.142c1.882-5.351.683-9.25-.685-11.606.53.249 1.014.545 1.462.879 1.108 1.809 3.707 6.456 3.976 8.82.329 2.91-.702 5.031-2.085 7.503-.218.392-.415.784-.603 1.182-2.529 5.445-1.809 10.966-1.121 13.87-2.21-1.041-4.062-2.325-5.27-3.167-3.646-2.534-4.805-7.511-2.622-11.357m20.789-7.49a1.001 1.001 0 0 0-1.475.774 14.061 14.061 0 0 1-.665 3.123c-.382-10.264-8.829-14.436-9.699-14.838-1.439-1.079-3.162-1.791-5.277-2.161a.999.999 0 0 0-.812 1.753c.183.155 4.09 3.534 2.783 9.958-1.321-1.819-3.564-4.215-6.21-4.215a1 1 0 0 0-.933 1.362c.026.064 2.462 6.485.094 10.196-.113.175-.217.349-.351.579-2.672 4.709-1.249 10.84 3.236 13.958 1.619 1.128 4.327 3.016 7.616 4.196v-.001a1.001 1.001 0 0 0 .449.056c1.242-.113 12.192-1.349 14.402-9.872 2.933-11.383-2.908-14.731-3.158-14.868"/></g></svg>

<?xml version="1.0" encoding="UTF-8"?>
<svg width="80px" height="80px" viewBox="0 0 80 80" version="1.1" xmlns="http://www.w3.org/2000/svg" xmlns:xlink="http://www.w3.org/1999/xlink">
    <!-- Generator: Sketch 64 (93537) - https://sketch.com -->
    <title>Icon-Architecture/64/Arch_AWS-Firewall-Manager_64</title>
    <desc>Created with Sketch.</desc>
    <defs>
        <linearGradient x1="0%" y1="100%" x2="100%" y2="0%" id="linearGradient-1">
            <stop stop-color="#BD0816" offset="0%"></stop>
            <stop stop-color="#FF5252" offset="100%"></stop>
        </linearGradient>
    </defs>
    <g id="Icon-Architecture/64/Arch_AWS-Firewall-Manager_64" stroke="none" stroke-width="1" fill="none" fill-rule="evenodd">
        <g id="Icon-Architecture-BG/64/Security-Identity-Compliance" fill="url(#linearGradient-1)">
            <rect id="Rectangle" x="0" y="0" width="80" height="80"></rect>
        </g>
        <path d="M63,40 C61.346,40 60,38.654 60,37 C60,35.346 61.346,34 63,34 C64.654,34 66,35.346 66,37 C66,38.654 64.654,40 63,40 M68,37 C68,34.243 65.757,32 63,32 C62.91,32 62.826,32.022 62.736,32.026 C62.181,30.607 61.507,29.247 60.714,27.975 L59.017,29.033 C59.704,30.135 60.298,31.31 60.793,32.536 C59.146,33.355 58,35.039 58,37 C58,39.547 59.922,41.632 62.388,41.938 C62.206,46.526 60.698,50.871 57.966,54.551 L59.571,55.743 C62.594,51.674 64.241,46.858 64.394,41.778 C66.47,41.169 68,39.27 68,37 M56,26 C54.346,26 53,24.654 53,23 C53,21.346 54.346,20 56,20 C57.654,20 59,21.346 59,23 C59,24.654 57.654,26 56,26 M61,23 C61,20.243 58.757,18 56,18 C53.243,18 51,20.243 51,23 C51,25.757 53.243,28 56,28 C58.757,28 61,25.757 61,23 M27,19 C27,17.346 28.346,16 30,16 C31.654,16 33,17.346 33,19 C33,20.654 31.654,22 30,22 C28.346,22 27,20.654 27,19 M35,19 C35,16.243 32.757,14 30,14 C27.243,14 25,16.243 25,19 C25,21.757 27.243,24 30,24 C32.757,24 35,21.757 35,19 M36.228,18.473 L35.927,16.496 C41.209,15.694 46.68,16.652 51.317,19.149 L50.368,20.91 C46.11,18.616 41.084,17.736 36.228,18.473 M20,36 C20,37.654 18.654,39 17,39 C15.346,39 14,37.654 14,36 C14,34.346 15.346,33 17,33 C18.654,33 20,34.346 20,36 M25.343,23.262 L24.091,21.702 C20.994,24.185 18.551,27.389 16.956,31.004 C14.22,31.028 12,33.258 12,36 C12,37.983 13.17,39.686 14.848,40.493 C14.844,40.667 14.828,40.838 14.828,41.013 C14.828,48.186 17.94,55.008 23.367,59.73 L24.68,58.221 C19.69,53.879 16.828,47.607 16.828,41.013 C16.828,41.003 16.829,40.993 16.829,40.983 C16.887,40.985 16.941,41 17,41 C19.757,41 22,38.757 22,36 C22,33.939 20.746,32.167 18.961,31.403 C20.428,28.247 22.612,25.451 25.343,23.262 M51.576,56.623 C49.946,62.91 42.113,64.55 39.699,64.911 C39.103,62.887 37.749,56.935 40.391,51.248 C40.558,50.895 40.733,50.542 40.929,50.192 C42.435,47.5 43.649,44.986 43.253,41.489 C43.058,39.762 41.965,37.306 40.921,35.281 C43.748,37.709 47.199,42.343 45.97,50 C45.904,50.409 46.097,50.816 46.455,51.023 C46.813,51.232 47.262,51.197 47.584,50.938 C47.682,50.859 49.694,49.194 50.573,45.12 C51.787,46.671 53.268,50.06 51.576,56.623 M29.566,49.746 C29.654,49.596 29.742,49.446 29.843,49.29 C31.906,46.056 31.155,41.546 30.496,39.075 C32.375,40.086 34.082,42.637 34.689,43.764 C34.878,44.111 35.242,44.313 35.648,44.286 C36.043,44.255 36.382,43.995 36.514,43.622 C38.396,38.271 37.197,34.372 35.829,32.016 C36.359,32.265 36.843,32.561 37.291,32.895 C38.399,34.704 40.998,39.351 41.267,41.715 C41.596,44.625 40.565,46.746 39.182,49.218 C38.964,49.61 38.767,50.002 38.579,50.4 C36.05,55.845 36.77,61.366 37.458,64.27 C35.248,63.229 33.396,61.945 32.188,61.103 C28.542,58.569 27.383,53.592 29.566,49.746 M50.355,42.256 C50.062,42.096 49.707,42.092 49.41,42.248 C49.113,42.403 48.915,42.697 48.88,43.03 C48.752,44.27 48.506,45.304 48.215,46.153 C47.833,35.889 39.386,31.717 38.516,31.315 C37.077,30.236 35.354,29.524 33.239,29.154 C32.798,29.075 32.353,29.307 32.162,29.718 C31.971,30.127 32.08,30.616 32.427,30.907 C32.61,31.062 36.517,34.441 35.21,40.865 C33.889,39.046 31.646,36.65 29,36.65 C28.67,36.65 28.362,36.813 28.176,37.085 C27.989,37.357 27.948,37.704 28.067,38.012 C28.093,38.076 30.529,44.497 28.161,48.208 C28.048,48.383 27.944,48.557 27.81,48.787 C25.138,53.496 26.561,59.627 31.046,62.745 C32.665,63.873 35.373,65.761 38.662,66.941 L38.662,66.94 C38.769,66.978 38.881,67 39,67 C39.03,67 39.081,66.999 39.111,66.996 C40.353,66.883 51.303,65.647 53.513,57.124 C56.446,45.741 50.605,42.393 50.355,42.256" id="AWS-Firewall-Manager_Icon_64_Squid" fill="#FFFFFF"></path>
    </g>
</svg>
